src/assets/icons/language.svg

<svg width="14" height="14" viewBox="0 0 14 14" fill="none" xmlns="http://www.w3.org/2000/svg">
<g id="language">
<g clip-path="url(#clip0_156_4492)">
<path id="Vector" d="M13.9646 12.9836L11.5403 6.19692C11.3658 5.75378 10.9868 5.47784 10.551 5.47784C10.1152 5.47784 9.73614 5.75377 9.55515 6.21477L7.13738 12.9836C7.02375 13.3001 7.18851 13.6483 7.50584 13.7611C7.81994 13.8739 8.16974 13.7091 8.28336 13.3926L8.78575 11.9869H12.3162L12.8186 13.3926C12.9071 13.6418 13.1416 13.7968 13.3916 13.7968C13.4598 13.7968 13.5288 13.7854 13.5961 13.7611C13.9127 13.6491 14.0774 13.3001 13.9646 12.9836ZM9.22077 10.7695L10.551 7.04747L11.8812 10.7695H9.22077ZM7.14955 3.63387C5.31695 6.52886 3.6564 8.28598 1.64443 9.45388C1.54866 9.50988 1.44397 9.53667 1.34008 9.53667C1.12988 9.53667 0.925352 9.42792 0.81335 9.23313C0.644536 8.94339 0.743552 8.57086 1.03411 8.40205C2.74091 7.41108 4.13606 5.9932 5.70165 3.63467H0.608826C0.272821 3.63467 0.00012207 3.36197 0.00012207 3.02597C0.00012207 2.68996 0.272821 2.41726 0.608826 2.41726H3.65234V0.811913C3.65234 0.475908 3.92504 0.203209 4.26105 0.203209C4.59705 0.203209 4.86975 0.475908 4.86975 0.811913V2.41726H7.91327C8.24928 2.41726 8.52197 2.68996 8.52197 3.02597C8.52197 3.36197 8.24928 3.63467 7.91327 3.63467L7.14955 3.63387ZM7.1812 9.53586C7.07732 9.53586 6.97262 9.50989 6.87604 9.45307C6.3485 9.14629 5.83637 8.80704 5.35509 8.44587C5.08645 8.24378 5.03288 7.86151 5.23497 7.59287C5.43625 7.32585 5.81608 7.26985 6.08797 7.47276C6.5303 7.80551 7.00184 8.11798 7.4888 8.40123C7.77936 8.57004 7.87756 8.94258 7.70875 9.23313C7.59512 9.4271 7.39141 9.53586 7.1812 9.53586Z" fill="black"/>
</g>
</g>
<defs>
<clipPath id="clip0_156_4492">
<rect width="14" height="14" fill="white"/>
</clipPath>
</defs>
</svg>

<svg xmlns="http://www.w3.org/2000/svg" fill="none" viewBox="0 0 14 14"><g clip-path="url(#a)"><path fill="#000" d="M13.965 12.984 11.54 6.197c-.174-.443-.553-.72-.989-.72s-.815.277-.996.738l-2.418 6.769a.607.607 0 0 0 .369.777.61.61 0 0 0 .777-.368l.503-1.406h3.53l.503 1.406a.608.608 0 1 0 1.146-.41M9.22 10.77l1.33-3.723 1.33 3.723zM7.15 3.634c-1.833 2.895-3.494 4.652-5.506 5.82a.606.606 0 0 1-.831-.22.61.61 0 0 1 .221-.832c1.707-.99 3.102-2.409 4.668-4.767H.609a.609.609 0 0 1 0-1.218h3.043V.812a.609.609 0 0 1 1.218 0v1.605h3.043a.609.609 0 0 1 0 1.218zm.031 5.902a.6.6 0 0 1-.305-.083 16 16 0 0 1-1.52-1.007.61.61 0 0 1 .732-.973c.442.333.914.645 1.4.928a.608.608 0 0 1-.307 1.135"/></g><defs><clipPath id="a"><path fill="#fff" d="M0 0h14v14H0z"/></clipPath></defs></svg>
